projects/plugins/jetpack/images/plans/jetpack-security.svg

<svg fill="none" height="64" viewBox="0 0 64 64" width="64" xmlns="http://www.w3.org/2000/svg"><circle cx="32" cy="32" fill="#069e08" r="32"/><path clip-rule="evenodd" d="m32 18.4167c-3.4518 0-6.25 2.7982-6.25 6.25v4h-2.0833c-.9205 0-1.6667.7462-1.6667 1.6666v10.3334c0 .9204.7462 1.6666 1.6667 1.6666h16.6666c.9205 0 1.6667-.7462 1.6667-1.6666v-10.3334c0-.9204-.7462-1.6666-1.6667-1.6666h-2.0833v-4c0-3.4518-2.7982-6.25-6.25-6.25zm3.75 10.25v-4c0-2.0711-1.6789-3.75-3.75-3.75s-3.75 1.6789-3.75 3.75v4z" fill="#fff" fill-rule="evenodd"/></svg>

<svg width="64" height="64" viewBox="0 0 64 64" fill="none" xmlns="http://www.w3.org/2000/svg">
<circle cx="32" cy="32" r="32" fill="#069E08"/>
<path fill-rule="evenodd" clip-rule="evenodd" d="M32 18.4167C28.5482 18.4167 25.75 21.2149 25.75 24.6667V28.6667H23.6667C22.7462 28.6667 22 29.4129 22 30.3333V40.6667C22 41.5871 22.7462 42.3333 23.6667 42.3333H40.3333C41.2538 42.3333 42 41.5871 42 40.6667V30.3333C42 29.4129 41.2538 28.6667 40.3333 28.6667H38.25V24.6667C38.25 21.2149 35.4518 18.4167 32 18.4167ZM35.75 28.6667V24.6667C35.75 22.5956 34.0711 20.9167 32 20.9167C29.9289 20.9167 28.25 22.5956 28.25 24.6667V28.6667H35.75Z" fill="white"/>
</svg>
